X:2084
T:Halling från Härjedalen efter Per Myhr
S:Efter Mats Berglund
Z:[[http://www.bluerose.karenlmyers.org/IncipitsHalling2.html|Karen Myers (#2084)]]
Z:Upptecknad 5/2001
M:2/4
L:1/8
R:Halling
O:Härjedalen
N:The key is really D Mixolydian
K:D
a(a/b/) a(f/a/) | g(e/g/) fA | a(a/b/) a(f/a/) | ge/=c/d2 | a(a/b/) a(f/a/) | g(e/g/) fA |
a(a/b/) a(f/a/) | ge/=c/ d>(f |: g)f d>=c | A(=c/B/) GA | F(E/D/) =CD |
FA GA | F(E/D/) =CD | FA GA | f>e d=c |1 d2 d>(f :|2 d2 d2 |]
